X:1
T:Title
%%score ( 1 2 ) { 3 | 4 }
L:1/8
Q:1/4=93
M:4/4
K:F
V:1 treble nm="Grand Piano, Soprano"
V:2 treble 
V:3 treble nm="Choir Pad, When the Angels Come"
V:4 bass 
V:1
 [CF][CG][FA][FA] [FA][F_A][F=A][Fc] | F[FG][FA][FB] [FA][EG] F2 | %2
w: By~Will~A.~Aders * * * * * * *||
 [FA][FA][EG][_E^F] [=EG][=FA][GB][GB] | [EG][EG][FA][FA] [F=B][Fd] [Ec]2 | %4
w: ||
 [CF][CG][FA][FA] [FA][F_A][F=A][Fc] | F[FG][FA][FB] [FA][EG] F2 | %6
w: ||
 [Fc][Fc][Af][Be] [Af][Fd][Fc][FA] | [Fc][Fd] [Fc]2- [Fc][GB] [FA]2 | [CG]2 [CF]6 | z2 e6 | z2 f6 | %11
w: |||||
 z2 c6 | z2 A6 | [Fc][Fc]f-[Af-] [Af-][Af-][Af][Af] | [ce][Bd]c-[Ac-] [Gc-][Bc-] [Ac]2 | %15
w: ||||
 [Fc][Fd] [Fc]2- [Fc][GB] [FA]2 | [CG]2 [CF]6- | [CF]2 z2 z4 |] %18
w: |||
V:2
 x8 | x8 | x8 | x8 | x8 | x8 | x8 | x8 | x8 | [Fc][Fc]GG GGG[Ge] | [Gd][Bc]AA AA A2 | %11
 [Fc][Fc]EE EEE[EB] | [EG][GB]FF FF F2 | z2 .A2 z4 | z2 .A2 z4 | x8 | x8 | x8 |] %18
V:3
 A,B,CC C=B,CA, | CDCD CB, A,2 | CCCC CCCC | CCCD D[K:bass]=B, C2 | A,B,C[K:treble]C C=B,CA, | %5
 CDCD C[K:bass]B, A,2 | A,A,C[K:treble]C CB,A,C | A,B, A,2- A,D C2 | B,2 A,6 | %9
 A,A,[K:treble]CC CCCC | CCCC CC C2 | A,A,G,G, G,G,G,[K:treble]C | CCCC CC C2 | A,A,CC CCCC | %14
 DEFF EG F2 | A,B, A,2- A,D C2 | B,2 A,6- | A,2 z2 z4 |] %18
V:4
 F,F,F,F, F,F,F,F, | A,,=B,,C,C, C,C, F,2 | F,F,C,C, C,C,C,C, | C,C,F,D, G,G, C,2 | %4
 F,F,F,F, F,F,F,F, | A,,=B,,C,C, C,C, F,2 | F,F,F,G, .A,2 F,F, | F,F, F,2- F,B,, C,2 | C,2 F,6 | %9
 F,F,C,C, C,C,C,C, | D,E,F,F, F,F, F,2 | F,F,C,C, C,C,C,C, | C,C,F,F, F,F, F,2 | %13
 F,F,F,F, F,F,F,F, | F,F,D,D, C,C, F,2 | F,F, F,2- F,B,, C,2 | C,2 F,6- | F,2 z2 z4 |] %18

